img/Twitter.svg

<svg width="224" height="224" viewBox="0 0 224 224" fill="none" xmlns="http://www.w3.org/2000/svg">
<path d="M20.1933 113.127L21.021 111.506L20.1684 109.897C9.92979 90.5784 4.26891 71.7621 3.57304 55.4623C2.87772 39.1757 7.13124 25.6646 16.3979 16.3979C25.6646 7.13124 39.1757 2.87772 55.4623 3.57304C71.7621 4.26891 90.5784 9.9298 109.897 20.1684L111.506 21.021L113.127 20.1933C132.017 10.551 150.466 5.39569 166.527 5.06833C182.568 4.74134 196.013 9.21828 205.388 18.5935C214.763 27.9686 219.24 41.4135 218.913 57.4551C218.586 73.5153 213.431 91.9651 203.788 110.854L202.961 112.476L203.813 114.085C214.052 133.403 219.713 152.22 220.409 168.519C221.104 184.806 216.85 198.317 207.584 207.584C198.317 216.85 184.806 221.104 168.519 220.409C152.22 219.713 133.403 214.052 114.085 203.813L112.476 202.961L110.854 203.788C91.9651 213.431 73.5153 218.586 57.4551 218.913C41.4135 219.24 27.9686 214.763 18.5935 205.388C9.21828 196.013 4.74135 182.568 5.06833 166.527C5.39569 150.466 10.551 132.017 20.1933 113.127Z" fill="#FFB8C6" stroke="#60A3BF" stroke-width="7"/>
<path d="M158.763 106.146L156.444 109.991C156.346 109.665 156.22 109.299 156.065 108.892C155.911 108.485 155.72 108.107 155.492 107.757C155.264 107.399 154.991 107.102 154.674 106.866C154.356 106.622 153.99 106.5 153.575 106.5C153.193 106.5 152.859 106.597 152.574 106.792C152.298 106.988 152.062 107.244 151.866 107.562C151.671 107.871 151.508 108.225 151.378 108.624C151.256 109.014 151.158 109.413 151.085 109.82C151.02 110.219 150.975 110.605 150.951 110.979C150.926 111.346 150.914 111.663 150.914 111.932V119H146.776V104.9H148.363L150.035 108.184C150.263 107.655 150.523 107.171 150.816 106.731C151.109 106.284 151.447 105.901 151.83 105.584C152.212 105.258 152.643 105.006 153.124 104.827C153.612 104.648 154.161 104.559 154.771 104.559C155.089 104.559 155.443 104.587 155.833 104.644C156.224 104.693 156.607 104.782 156.981 104.913C157.355 105.035 157.701 105.197 158.019 105.401C158.336 105.604 158.584 105.853 158.763 106.146Z" fill="#FDFDFD"/>
<path d="M134.032 112.31C134.536 112.424 135.041 112.514 135.545 112.579C136.05 112.644 136.559 112.676 137.071 112.676C137.608 112.676 138.105 112.627 138.561 112.53C139.024 112.424 139.423 112.253 139.757 112.017C140.099 111.773 140.367 111.451 140.562 111.053C140.758 110.654 140.855 110.158 140.855 109.563C140.855 109.083 140.79 108.644 140.66 108.245C140.53 107.846 140.335 107.505 140.074 107.22C139.822 106.935 139.509 106.715 139.134 106.561C138.76 106.398 138.325 106.316 137.828 106.316C137.364 106.316 136.945 106.402 136.571 106.573C136.205 106.744 135.879 106.976 135.594 107.269C135.318 107.553 135.077 107.887 134.874 108.27C134.679 108.652 134.516 109.051 134.386 109.466C134.256 109.881 134.162 110.3 134.105 110.723C134.048 111.146 134.02 111.545 134.02 111.919C134.02 111.985 134.02 112.05 134.02 112.115C134.02 112.18 134.024 112.245 134.032 112.31ZM144.2 109.527C144.2 110.105 144.107 110.621 143.919 111.077C143.732 111.525 143.476 111.919 143.15 112.261C142.833 112.603 142.463 112.892 142.04 113.128C141.616 113.364 141.165 113.559 140.685 113.714C140.204 113.86 139.708 113.966 139.195 114.031C138.691 114.096 138.198 114.129 137.718 114.129C137.108 114.129 136.506 114.088 135.912 114.007C135.318 113.917 134.732 113.779 134.154 113.592C134.243 114.129 134.386 114.642 134.581 115.13C134.776 115.61 135.037 116.033 135.362 116.399C135.688 116.757 136.087 117.042 136.559 117.254C137.039 117.465 137.604 117.571 138.255 117.571C138.687 117.571 139.098 117.506 139.488 117.376C139.879 117.246 140.237 117.063 140.562 116.827C140.888 116.591 141.173 116.31 141.417 115.984C141.669 115.659 141.873 115.297 142.027 114.898L143.81 115.557C143.541 116.2 143.171 116.757 142.699 117.229C142.235 117.693 141.706 118.08 141.112 118.389C140.526 118.69 139.899 118.914 139.232 119.061C138.573 119.207 137.918 119.28 137.267 119.28C136.192 119.28 135.2 119.101 134.288 118.743C133.377 118.377 132.591 117.868 131.932 117.217C131.273 116.566 130.756 115.789 130.382 114.886C130.007 113.982 129.82 112.994 129.82 111.919C129.82 110.845 130.007 109.856 130.382 108.953C130.756 108.05 131.273 107.273 131.932 106.622C132.591 105.971 133.377 105.466 134.288 105.108C135.2 104.742 136.192 104.559 137.267 104.559C137.787 104.559 138.32 104.595 138.866 104.668C139.411 104.742 139.94 104.86 140.453 105.022C140.965 105.177 141.45 105.381 141.905 105.633C142.361 105.885 142.756 106.198 143.089 106.573C143.431 106.939 143.7 107.366 143.895 107.854C144.098 108.343 144.2 108.9 144.2 109.527Z" fill="#FDFDFD"/>
<path d="M125.084 119H120.946V106.537H118.382V104.901H120.946V99.7129H125.084V104.901H129.356V106.537H125.084V119Z" fill="#FDFDFD"/>
<path d="M113.585 119H109.447V106.537H106.883V104.901H109.447V99.7129H113.585V104.901H117.857V106.537H113.585V119Z" fill="#FDFDFD"/>
<path d="M104.991 101.495C104.991 101.804 104.93 102.097 104.808 102.374C104.694 102.651 104.535 102.891 104.332 103.094C104.129 103.298 103.889 103.46 103.612 103.583C103.335 103.696 103.042 103.753 102.733 103.753C102.424 103.753 102.131 103.696 101.854 103.583C101.585 103.46 101.349 103.298 101.146 103.094C100.943 102.891 100.78 102.651 100.658 102.374C100.544 102.097 100.487 101.804 100.487 101.495C100.487 101.186 100.544 100.897 100.658 100.628C100.78 100.352 100.943 100.112 101.146 99.9082C101.349 99.7048 101.585 99.5461 101.854 99.4321C102.131 99.3101 102.424 99.249 102.733 99.249C103.042 99.249 103.335 99.3101 103.612 99.4321C103.889 99.5461 104.129 99.7048 104.332 99.9082C104.535 100.112 104.694 100.352 104.808 100.628C104.93 100.897 104.991 101.186 104.991 101.495ZM104.808 119H100.67V104.913H104.808V119Z" fill="#FDFDFD"/>
<path d="M86.1558 119H82.4448L78.5874 104.9H82.7134L85.1304 114.788L87.1445 104.9H90.8555L93.3213 115.057L95.7017 104.9H98.5581L94.2856 119H90.5747L88.4873 110.43L86.1558 119Z" fill="#FDFDFD"/>
<path d="M74.1196 119H69.2734V103.668H64.4883V101.422H78.9048V103.668H74.1196V119Z" fill="#FDFDFD"/>
</svg>

<svg width="224" height="224" fill="none" xmlns="http://www.w3.org/2000/svg"><path d="M20.193 113.127l.828-1.621-.853-1.609C9.93 90.578 4.268 71.762 3.573 55.462c-.695-16.286 3.558-29.797 12.825-39.064S39.176 2.878 55.462 3.573c16.3.696 35.116 6.357 54.435 16.595l1.609.853 1.621-.828c18.89-9.642 37.339-14.797 53.4-15.125 16.041-.327 29.486 4.15 38.861 13.525 9.375 9.376 13.852 22.82 13.525 38.862-.327 16.06-5.482 34.51-15.125 53.399l-.827 1.622.852 1.609c10.239 19.318 15.9 38.135 16.596 54.434.695 16.287-3.559 29.798-12.825 39.065-9.267 9.266-22.778 13.52-39.065 12.825-16.299-.696-35.116-6.357-54.434-16.596l-1.609-.852-1.622.827c-18.889 9.643-37.339 14.798-53.399 15.125-16.041.327-29.486-4.15-38.861-13.525-9.376-9.375-13.853-22.82-13.526-38.861.328-16.061 5.483-34.51 15.125-53.4z" fill="#FFB8C6" stroke="#60A3BF" stroke-width="7"/><path d="M158.763 106.146l-2.319 3.845a16.337 16.337 0 00-.379-1.099 5.89 5.89 0 00-.573-1.135 3.32 3.32 0 00-.818-.891 1.755 1.755 0 00-1.099-.366 1.73 1.73 0 00-1.001.292 2.603 2.603 0 00-.708.77 4.724 4.724 0 00-.488 1.062c-.122.39-.22.789-.293 1.196a14.233 14.233 0 00-.171 2.112V119h-4.138v-14.1h1.587l1.672 3.284a9.14 9.14 0 01.781-1.453c.293-.447.631-.83 1.014-1.147a4.269 4.269 0 011.294-.757 4.758 4.758 0 011.647-.268c.318 0 .672.028 1.062.085.391.049.774.138 1.148.269.374.122.72.284 1.038.488.317.203.565.452.744.745zm-24.731 6.164c.504.114 1.009.204 1.513.269.505.065 1.014.097 1.526.097.537 0 1.034-.049 1.49-.146a3.341 3.341 0 001.196-.513c.342-.244.61-.566.805-.964.196-.399.293-.895.293-1.49 0-.48-.065-.919-.195-1.318a2.76 2.76 0 00-.586-1.025 2.502 2.502 0 00-.94-.659c-.374-.163-.809-.245-1.306-.245-.464 0-.883.086-1.257.257a3.305 3.305 0 00-.977.696 4.349 4.349 0 00-.72 1.001 7.67 7.67 0 00-.769 2.453 8.977 8.977 0 00-.085 1.196v.196c0 .065.004.13.012.195zm10.168-2.783c0 .578-.093 1.094-.281 1.55a3.844 3.844 0 01-.769 1.184 4.472 4.472 0 01-1.11.867 7.54 7.54 0 01-1.355.586 9.022 9.022 0 01-1.49.317c-.504.065-.997.098-1.477.098-.61 0-1.212-.041-1.806-.122-.594-.09-1.18-.228-1.758-.415a7.39 7.39 0 00.427 1.538c.195.48.456.903.781 1.269.326.358.725.643 1.197.855.48.211 1.045.317 1.696.317a3.92 3.92 0 002.307-.744c.326-.236.611-.517.855-.843.252-.325.456-.687.61-1.086l1.783.659a5.143 5.143 0 01-1.111 1.672 6.419 6.419 0 01-1.587 1.16 7.744 7.744 0 01-1.88.672 9.062 9.062 0 01-1.965.219c-1.075 0-2.067-.179-2.979-.537a7.05 7.05 0 01-2.356-1.526 7 7 0 01-1.55-2.331c-.375-.904-.562-1.892-.562-2.967 0-1.074.187-2.063.562-2.966a7 7 0 011.55-2.331 6.901 6.901 0 012.356-1.514c.912-.366 1.904-.549 2.979-.549.52 0 1.053.036 1.599.109a9.508 9.508 0 011.587.354c.512.155.997.359 1.452.611a4.44 4.44 0 011.184.94c.342.366.611.793.806 1.281.203.489.305 1.046.305 1.673zM125.084 119h-4.138v-12.463h-2.564v-1.636h2.564v-5.188h4.138v5.188h4.272v1.636h-4.272V119zm-11.499 0h-4.138v-12.463h-2.564v-1.636h2.564v-5.188h4.138v5.188h4.272v1.636h-4.272V119zm-8.594-17.505c0 .309-.061.602-.183.879a2.18 2.18 0 01-.476.72 2.345 2.345 0 01-.72.489c-.277.113-.57.17-.879.17-.309 0-.602-.057-.879-.17a2.343 2.343 0 01-1.196-1.209 2.287 2.287 0 01-.171-.879c0-.309.057-.598.171-.867.122-.276.285-.516.488-.72.203-.203.439-.362.708-.476.277-.122.57-.183.879-.183.309 0 .602.061.879.183a2.174 2.174 0 011.196 1.196c.122.269.183.558.183.867zM104.808 119h-4.138v-14.087h4.138V119zm-18.652 0h-3.711l-3.858-14.1h4.126l2.417 9.888 2.014-9.888h3.712l2.465 10.157 2.38-10.157h2.857L94.286 119h-3.711l-2.088-8.57-2.331 8.57zm-12.036 0h-4.847v-15.332h-4.785v-2.246h14.417v2.246H74.12V119z" fill="#FDFDFD"/></svg>
